src/library/svgs/eggplant.svg

<svg xmlns="http://www.w3.org/2000/svg" viewBox="0 0 100 100">
    <path d="M71.4 52.4c-7.6-9.1-19.5-10.3-30.6-21.1-6.7-6.5-18.5 6.4-15.3 12.6 4.3 8.2 14.2 23.9 23.1 30.8 19.1 14.7 38.2-3.9 22.8-22.3" fill="#7a2d77"/>
    <path d="M28 45.9c2.2-2.6 1.6-6.9 1.6-6.9s1.7 2 4.2 2l.2-4.4s3.8-.1 7.1-3.8l-11.2-.4-3.9 6.4 2 7.1" opacity=".15"/>
    <g fill="#83b730">
        <path d="M28.9 30.5l-.9 1.6c-2.4-1.6-5.8-6-2.4-12.1l1.5 1c-3.1 5.5 1.3 9.1 1.8 9.5"/>
        <path d="M35.2 34.2c3.8.4 7.3-2.6 7.3-2.6s-2.6-3.6-6.5-4c-3.8-.4-7.1.7-7.3 2.5-.2 1.9 2.7 3.7 6.5 4.1M23.1 38.2c-.5 4 2 7.5 2 7.5s3.2-2.9 3.7-6.9-.4-7.3-2-7.5c-1.6-.1-3.2 3-3.7 6.9"/>
    </g>
    <path d="M26.7 36c2.5 3.5 7.9 3.5 7.9 3.5s1.2-5.7-1.3-9.3c-2.5-3.5-6.1-5.1-7.9-3.5-1.9 1.6-1.3 5.7 1.3 9.3" fill="#8cc63e"/>
</svg>

<?xml version="1.0" encoding="utf-8"?>
<!-- Generator: Adobe Illustrator 22.1.0, SVG Export Plug-In . SVG Version: 6.00 Build 0)  -->
<svg version="1.1" id="Layer_1" xmlns="http://www.w3.org/2000/svg" xmlns:xlink="http://www.w3.org/1999/xlink" x="0px" y="0px"
	 viewBox="0 0 100 100" style="enable-background:new 0 0 100 100;" xml:space="preserve">
<style type="text/css">
	.st0{fill:#7A2D77;}
	.st1{opacity:0.15;enable-background:new    ;}
	.st2{fill:#83B730;}
	.st3{fill:#8CC63E;}
</style>
<g>
	<path class="st0" d="M71.4,52.4c-7.6-9.1-19.5-10.3-30.6-21.1c-6.7-6.5-18.5,6.4-15.3,12.6c4.3,8.2,14.2,23.9,23.1,30.8
		C67.7,89.4,86.8,70.8,71.4,52.4"/>
	<path class="st1" d="M28,45.9c2.2-2.6,1.6-6.9,1.6-6.9s1.7,2,4.2,2l0.2-4.4c0,0,3.8-0.1,7.1-3.8l-11.2-0.4L26,38.8L28,45.9"/>
	<g>
		<path class="st2" d="M28.9,30.5L28,32.1c-2.4-1.6-5.8-6-2.4-12.1l1.5,1C24,26.5,28.4,30.1,28.9,30.5"/>
		<path class="st2" d="M35.2,34.2c3.8,0.4,7.3-2.6,7.3-2.6s-2.6-3.6-6.5-4c-3.8-0.4-7.1,0.7-7.3,2.5C28.5,32,31.4,33.8,35.2,34.2"/>
		<path class="st2" d="M23.1,38.2c-0.5,4,2,7.5,2,7.5s3.2-2.9,3.7-6.9s-0.4-7.3-2-7.5C25.2,31.2,23.6,34.3,23.1,38.2"/>
	</g>
	<path class="st3" d="M26.7,36c2.5,3.5,7.9,3.5,7.9,3.5s1.2-5.7-1.3-9.3c-2.5-3.5-6.1-5.1-7.9-3.5C23.5,28.3,24.1,32.4,26.7,36"/>
</g>
</svg>
